X:1
T:[ID 8-81]
T:[ID 8-81]
T:Bezeichnung standardisiert: March March No 1. \"Ahnlich in anderer Quelle: 7. Teusch - H. N. Philipp ab 1785 (Anm. S. Wascher); Zu Nro 17 und 18 - J. W. Heine um 1800 (Anm. S. Wascher);  "hoch soll er leben!" (Anm. S. Wascher)
T:Urheber unbekannt Datum in der hier transkribierten schriftlichen Quelle: 1792
C:Urheber unbekannt
C:Datum in der hier transkribierten schriftlichen Quelle: 1792
L:1/8
M:4/4
K:D
V:1 treble nm="Primo"
V:1
 d2 d>d d2 d2 | f2 f>f f2 f2 | a3 f a2 gf | e2 e>e e4 :: a3 g fagf | e2 e>e e4 | a3 a bagf | %7
 e2 e>e e4 | d2 d>d d2 d2 | f2 f>f f2 f2 | a3 b agfe | d2 d>d d4 :| %12

